X:1
T:Title
%%score { ( 1 3 ) | ( 2 4 ) }
L:1/8
M:6/8
K:Ab
V:1 treble nm="Grand Piano"
V:3 treble 
V:2 bass 
V:4 bass 
V:1
 z3 z2[Q:1/4=100] [CE] | [CE]2 [CE] [CE][_C=D][=CE] | [DF]3 [CE]2 [CE] | %3
 [CEA]2 [CEA] E-[EG][A,EA] | [EB]6 | [Ec][Ec][Ec] [Ec]2 [DB] | [CA]2 [DF] [CA]2 [Ec] | B2 B BAG | %8
 A2 B c2 e | e2 c cBA | %10
[M:17/16] [EB]/-[EB]/-[EB]/-[EB]/-[EB]/-[EB]-<[EB][=Ec]/-[Ec]/-[Ec]-<[Ec] z | %11
[M:3/4] [CE]2 [CE][CE] [DF][DG] | [CA]2 [CA] [CA]3 | B2 BB AG | A2 B c3 | ee e c3 | %16
 [EAc][EAc] [EAc] [CEA]2 [CEA] | [DFB]2 [DFB] [CEA]2 [B,EG] |[M:5/8] [CEA]-[CEA]- [CEA]3 |] %19
V:2
 z3 z2 [A,,A,] | [A,,A,]2 [A,,A,] [A,,A,]2 [A,,A,] | [A,,A,]3 [A,,A,]2 [A,,A,] | A,2 A, z B,C, | %4
 [E,G,]6 | [A,,A,][A,,A,][A,,A,] [A,,A,]2 [A,,E,] | [A,,A,]2 [A,,A,] [A,,A,]2 [A,,A,] | %7
 [E,G,E]2 [E,G,E] [E,E]-[E,CE][E,B,E] | [E,CE]2 [E,G,E][K:treble] [A,E]2 [A,CA] | %9
 [A,CA]2[K:bass] [A,E] [F,A,D]2 [F,B,D] | %10
[M:17/16] [E,G,]/-[E,G,]/-[E,G,]/-[E,G,]/-[E,G,]/-[E,G,]-<[E,G,][C,G,]/-[C,G,]/-[C,G,]-<[C,G,] z | %11
[M:3/4] [A,,A,]2 [A,,A,] [A,,A,]2 [A,,E,] | [A,,E,]2 [A,,E,] [A,,E,]3 | %13
 [E,G,D]2 [E,G,D][E,D]- [E,A,D][E,B,D] | [A,C]2 [A,D] [A,E]3 | [A,CA][A,CA] [A,CA] [A,EA]3 | %16
 A,,A,, A,, A,,2 A,, | D,2 D, E,2 E, |[M:5/8] A,,-A,,- A,,3 |] %19
V:3
 x6 | x6 | x6 | z3 .[A,A]3 | x6 | x6 | x6 | x6 | x6 | x6 |[M:17/16] x17/2 |[M:3/4] x6 | x6 | x6 | %14
 x6 | x6 | x6 | x6 |[M:5/8] x5 |] %19
V:4
 x6 | x6 | x6 | z3 .C,3 | x6 | x6 | x6 | z3 .G,3 | x3[K:treble] x3 | x2[K:bass] x4 | %10
[M:17/16] x17/2 |[M:3/4] x6 | x6 | z2 z G, z2 | x6 | x6 | x6 | x6 |[M:5/8] x5 |] %19

